public/thumbs-up-filled.svg

<?xml version="1.0" encoding="UTF-8" standalone="no"?>
<!DOCTYPE svg PUBLIC "-//W3C//DTD SVG 1.1//EN" "http://www.w3.org/Graphics/SVG/1.1/DTD/svg11.dtd">
<!-- Created with Vectornator (http://vectornator.io/) -->
<svg height="100%" stroke-miterlimit="10" style="fill-rule:nonzero;clip-rule:evenodd;stroke-linecap:round;stroke-linejoin:round;" version="1.1" viewBox="0 0 478.2 478.2" width="100%" xml:space="preserve" xmlns="http://www.w3.org/2000/svg" xmlns:vectornator="http://vectornator.io" xmlns:xlink="http://www.w3.org/1999/xlink">
<defs/>
<clipPath id="ArtboardFrame">
<rect height="478.2" width="478.2" x="0" y="0"/>
</clipPath>
<g clip-path="url(#ArtboardFrame)" id="Untitled" vectornator:layerName="Untitled">
<path d="M457.575 325.1C467.375 312.6 472.075 299.2 471.475 285.4C470.875 270.2 464.075 258.3 458.475 251C464.975 234.8 467.475 209.3 445.775 189.5C429.875 175 402.875 168.5 365.475 170.3C339.175 171.5 317.175 176.4 316.275 176.6L316.175 176.6C311.175 177.5 305.875 178.6 300.475 179.8C300.075 173.4 301.175 157.5 312.975 121.7C326.975 79.1 326.175 46.5 310.375 24.7C293.775 1.8 267.275 4.61853e-14 259.475 4.61853e-14C251.975 4.61853e-14 245.075 3.1 240.175 8.8C229.075 21.7 230.375 45.5 231.775 56.5C218.575 91.9 181.575 178.7 150.275 202.8C149.675 203.2 149.175 203.7 148.675 204.2C139.475 213.9 133.275 224.4 129.075 233.6C123.175 230.4 116.475 228.6 109.275 228.6L48.275 228.6C25.275 228.6 6.675 247.3 6.675 270.2L6.675 432.7C6.675 455.7 25.375 474.3 48.275 474.3L109.275 474.3C118.175 474.3 126.475 471.5 133.275 466.7L156.775 469.5C160.375 470 224.375 478.1 290.075 476.8C301.975 477.7 313.175 478.2 323.575 478.2C341.475 478.2 357.075 476.8 370.075 474C400.675 467.5 421.575 454.5 432.175 435.4C440.275 420.8 440.275 406.3 438.975 397.1C458.875 379.1 462.375 359.2 461.675 345.2C461.275 337.1 459.475 330.2 457.575 325.1ZM48.275 447.3C40.175 447.3 33.675 440.7 33.675 432.7L33.675 270.1C33.675 262 40.275 255.5 48.275 255.5L109.275 255.5C117.375 255.5 123.875 262.1 123.875 270.1L123.875 432.6C123.875 440.7 117.275 447.2 109.275 447.2L48.275 447.2C48.275 447.2 48.275 447.3 48.275 447.3Z" fill="#000000" fill-rule="nonzero" opacity="1" stroke="none" vectornator:layerName="path"/>
</g>
</svg>

<svg xmlns="http://www.w3.org/2000/svg" xmlns:vectornator="http://vectornator.io" xml:space="preserve" stroke-miterlimit="10" style="fill-rule:nonzero;clip-rule:evenodd;stroke-linecap:round;stroke-linejoin:round" viewBox="0 0 478.2 478.2"><clipPath id="a"><path d="M0 0h478.2v478.2H0z"/></clipPath><g vectornator:layerName="Untitled" clip-path="url(#a)"><path vectornator:layerName="path" d="M457.575 325.1c9.8-12.5 14.5-25.9 13.9-39.7-.6-15.2-7.4-27.1-13-34.4 6.5-16.2 9-41.7-12.7-61.5-15.9-14.5-42.9-21-80.3-19.2-26.3 1.2-48.3 6.1-49.2 6.3h-.1c-5 .9-10.3 2-15.7 3.2-.4-6.4.7-22.3 12.5-58.1 14-42.6 13.2-75.2-2.6-97-16.6-22.9-43.1-24.7-50.9-24.7-7.5 0-14.4 3.1-19.3 8.8-11.1 12.9-9.8 36.7-8.4 47.7-13.2 35.4-50.2 122.2-81.5 146.3-.6.4-1.1.9-1.6 1.4-9.2 9.7-15.4 20.2-19.6 29.4-5.9-3.2-12.6-5-19.8-5h-61c-23 0-41.6 18.7-41.6 41.6v162.5c0 23 18.7 41.6 41.6 41.6h61c8.9 0 17.2-2.8 24-7.6l23.5 2.8c3.6.5 67.6 8.6 133.3 7.3 11.9.9 23.1 1.4 33.5 1.4 17.9 0 33.5-1.4 46.5-4.2 30.6-6.5 51.5-19.5 62.1-38.6 8.1-14.6 8.1-29.1 6.8-38.3 19.9-18 23.4-37.9 22.7-51.9-.4-8.1-2.2-15-4.1-20.1Zm-409.3 122.2c-8.1 0-14.6-6.6-14.6-14.6V270.1c0-8.1 6.6-14.6 14.6-14.6h61c8.1 0 14.6 6.6 14.6 14.6v162.5c0 8.1-6.6 14.6-14.6 14.6h-61v.1Z"/></g></svg>
